.icons/oomox-ad/24x24/mimetypes/application-vnd.google-apps.form.svg

<svg xmlns="http://www.w3.org/2000/svg" width="24" height="24" version="1.1">
 <path style="opacity:0.2" d="m 5,2.5 c -0.554,0 -1,0.446 -1,1 v 18 c 0,0.554 0.446,1 1,1 h 14 c 0.554,0 1,-0.446 1,-1 V 8.5 L 14.5,8 14,2.5 Z"/>
 <path style="fill:#764ebf" d="M 5,2 C 4.446,2 4,2.446 4,3 V 21 C 4,21.554 4.446,22 5,22 H 19 C 19.554,22 20,21.554 20,21 V 8 L 14.5,7.5 14,2 Z"/>
 <path style="opacity:0.2;fill:#ffffff" d="M 5,2 C 4.446,2 4,2.446 4,3 V 3.5 C 4,2.946 4.446,2.5 5,2.5 H 14 V 2 Z"/>
 <path style="opacity:0.2" d="m 14,2.5 v 5 c 0,0.5525 0.448,1 1,1 h 5 z"/>
 <path style="fill:#b7a2dd" d="M 14,2 V 7 C 14,7.5525 14.448,8 15,8 H 20 Z"/>
 <path style="opacity:0.1" d="M 7,11.5 V 12.5 H 8 V 11.5 Z M 9,11.5 V 12.5 H 17 V 11.5 Z M 7,14.5 V 15.5 H 8 V 14.5 Z M 9,14.5 V 15.5 H 17 V 14.5 Z M 7,17.5 V 18.5 H 8 V 17.5 Z M 9,17.5 V 18.5 H 17 V 17.5 Z"/>
 <path style="fill:#ffffff" d="M 7 11 L 7 12 L 8 12 L 8 11 L 7 11 z M 9 11 L 9 12 L 17 12 L 17 11 L 9 11 z M 7 14 L 7 15 L 8 15 L 8 14 L 7 14 z M 9 14 L 9 15 L 17 15 L 17 14 L 9 14 z M 7 17 L 7 18 L 8 18 L 8 17 L 7 17 z M 9 17 L 9 18 L 17 18 L 17 17 L 9 17 z"/>
</svg>

<svg xmlns="http://www.w3.org/2000/svg" width="24" height="24" version="1.1">
 <path style="opacity:0.2" d="m 5,2.5 c -0.554,0 -1,0.446 -1,1 v 18 c 0,0.554 0.446,1 1,1 h 14 c 0.554,0 1,-0.446 1,-1 V 8.5 L 14.5,8 14,2.5 Z"/>
 <path style="fill:#13a553" d="M 5,2 C 4.446,2 4,2.446 4,3 V 21 C 4,21.554 4.446,22 5,22 H 19 C 19.554,22 20,21.554 20,21 V 8 L 14.5,7.5 14,2 Z"/>
 <path style="opacity:0.2;fill:#ffffff" d="M 5,2 C 4.446,2 4,2.446 4,3 V 3.5 C 4,2.946 4.446,2.5 5,2.5 H 14 V 2 Z"/>
 <path style="opacity:0.2" d="m 14,2.5 v 5 c 0,0.5525 0.448,1 1,1 h 5 z"/>
 <path style="fill:#70c795" d="M 14,2 V 7 C 14,7.5525 14.448,8 15,8 H 20 Z"/>
 <path style="opacity:0.2" d="m 7,11.5 v 1 h 1 v -1 z m 2,0 v 1 h 8 v -1 z m -2,2 v 1 h 1 v -1 z m 2,0 v 1 h 8 v -1 z m -2,2 v 1 h 1 v -1 z m 2,0 v 1 h 8 v -1 z m -2,2 v 1 h 1 v -1 z m 2,0 v 1 h 8 v -1 z"/>
 <path style="fill:#ffffff" d="M 7 11 L 7 12 L 8 12 L 8 11 L 7 11 z M 9 11 L 9 12 L 17 12 L 17 11 L 9 11 z M 7 13 L 7 14 L 8 14 L 8 13 L 7 13 z M 9 13 L 9 14 L 17 14 L 17 13 L 9 13 z M 7 15 L 7 16 L 8 16 L 8 15 L 7 15 z M 9 15 L 9 16 L 17 16 L 17 15 L 9 15 z M 7 17 L 7 18 L 8 18 L 8 17 L 7 17 z M 9 17 L 9 18 L 17 18 L 17 17 L 9 17 z"/>
</svg>
